X:368
M:C|
L:1/8
K:G
c|BGdG BGG_B|A=FcF AFFA|BGdG BGGg|egdg BGG:|
g|bgaf gdde|~=fdc_B AFFg|bgaf gdd=f|eg^fa gGGg|bgaf gdde|=fdc_B AFFA|

